img/icon-participate-yellow.svg

<svg width="48" height="48" viewBox="0 0 48 48" fill="none" xmlns="http://www.w3.org/2000/svg">
<path d="M47.2696 24.2263C47.1223 24.1613 46.9582 24.1129 46.7946 24.1129C46.3852 24.1129 45.9918 24.3397 45.7462 24.7282L43.8954 27.9507C43.8954 27.9507 43.715 27.9023 43.404 27.8857L44.7144 18.6875C44.8781 18.0072 44.5014 17.3435 43.8953 17.1652L43.748 17.1329C43.1256 16.9711 42.4865 17.3919 42.3066 18.0722L41.3075 24.0314L40.5048 23.8858L41.1108 16.4849C41.2092 15.7886 40.7668 15.1572 40.1444 15.0599L40.0787 15.0768C39.4564 14.9957 38.8666 15.4653 38.752 16.1456L37.9329 23.611L37.1302 23.6433L37.3759 17.4085C37.3922 17.279 37.3759 17.1656 37.3595 17.0522C37.8672 13.6191 38.1949 9.92693 38.2276 9.37625C38.4896 8.21021 37.8346 7.04418 36.7041 6.62333C36.0817 6.38045 35.3774 6.42888 34.7713 6.72056C34.1652 7.01188 33.7229 7.54647 33.5265 8.17789C33.5265 8.21018 33.5102 8.24284 33.5102 8.25898L32.8715 11.7083L33.4612 4.87437V4.84208C33.5432 3.44934 32.4948 2.25101 31.1023 2.12146C30.3979 2.05652 29.6935 2.26712 29.1531 2.70447C28.6124 3.15797 28.2851 3.77325 28.2194 4.48577L27.7933 8.19406L27.99 2.57454V2.52611C27.941 1.10107 26.7942 0 25.3528 0H25.2381C23.7967 0 22.6172 1.14989 22.6009 2.57493L22.1585 9.19826L22.0275 4.5346V4.46965C21.9455 3.77327 21.6014 3.15802 21.0448 2.72064C20.4877 2.28329 19.8 2.08921 19.112 2.16992L18.8826 2.2022C17.4902 2.364 16.4584 3.6111 16.5567 4.9877V15.886L15.1973 12.8252C15.1973 12.8091 15.181 12.8091 15.181 12.7929C14.5913 11.6107 13.2482 11.0116 11.9705 11.3679C10.5613 11.7403 9.70953 13.1819 10.0699 14.6069L10.1189 14.8337C10.4956 16.291 10.8396 17.6999 11.1673 18.8498L11.7407 23.0764L10.8563 23.1575L9.28381 15.8378C9.10344 15.1737 8.39942 14.7852 7.72767 14.947L7.66197 14.9631C6.97391 15.1249 6.54823 15.8213 6.72822 16.5016L8.07128 23.789L7.20322 24.0319L5.5487 18.2183C5.30302 17.5542 4.54967 17.2306 3.89418 17.4735L3.74684 17.5384C3.09181 17.7813 2.74781 18.4939 2.99346 19.158L5.27033 28.1296C4.92629 28.1945 4.72959 28.2591 4.72959 28.2591L2.40374 25.2956C2.14173 24.9878 1.74871 24.8098 1.35532 24.8098C1.12597 24.8098 0.896607 24.8748 0.68358 24.9881C0.0448791 25.3444 -0.184479 26.1542 0.159559 26.8017C0.912939 28.1783 2.10872 30.4131 2.56746 31.0446C3.33717 32.0972 4.09094 32.9877 4.91004 33.6518C5.72911 34.3159 6.61345 34.7528 7.6783 34.9151L8.07132 36.4697C8.03866 36.4697 8.00562 36.4858 7.9893 36.5019C5.7451 37.3278 5.81081 38.1538 5.89247 38.4939C5.89247 38.51 5.9088 38.5423 5.9088 38.5588L8.30037 47.4008C8.39871 47.7571 8.72642 48 9.08678 48C9.15247 48 9.23411 48 9.29981 47.9677C9.74219 47.8543 10.0042 47.417 9.87319 46.9801L7.82575 39.369C8.12041 39.3529 8.39913 39.3206 8.62849 39.288C9.77528 39.1423 11.3478 38.8345 13.1659 38.381C13.8376 38.2192 14.4437 38.057 15.0003 37.8952V47.1746C15.0003 47.6281 15.3607 47.9843 15.8194 47.9843C16.2781 47.9843 16.6385 47.6281 16.6385 47.1746V33.4585C16.6711 33.4747 16.7042 33.4747 16.7368 33.4908C17.0152 33.5558 17.3266 33.6203 17.7032 33.7014C18.031 33.7664 18.375 33.8309 18.768 33.8959C19.636 34.0415 20.6682 34.1711 21.8146 34.2683C23.4854 34.3978 25.4182 34.4466 27.5151 34.2683C28.5472 34.1872 29.6282 34.0577 30.742 33.8636C31.135 33.7986 31.5284 33.7179 31.9214 33.6368C32.0198 33.6207 32.1018 33.5884 32.1998 33.5719V47.1745C32.1998 47.628 32.5601 47.9843 33.0188 47.9843C33.4776 47.9843 33.8379 47.628 33.8379 47.1745V38.4298C34.706 38.6242 35.8201 38.8183 37.1632 39.0128C38.8503 39.2395 40.2918 39.3691 41.3566 39.3691H41.4876C41.6349 39.3691 41.8153 39.3691 41.9953 39.3529L40.8322 47.045C40.7665 47.4824 41.0778 47.9032 41.5202 47.9682H41.6349C42.0279 47.9682 42.3883 47.6769 42.4376 47.2718L43.797 38.3325V38.3002V38.2679V38.2195V38.1711C43.8297 37.4424 43.1253 36.8756 41.6839 36.487C41.6512 36.4709 41.6182 36.4709 41.5692 36.4709L41.7985 34.884C42.7323 34.5927 43.502 34.0581 44.1901 33.2972C44.8782 32.5523 45.4842 31.5804 46.0903 30.4309C46.4506 29.7507 47.3518 27.3863 47.9084 25.929C48.1545 25.2788 47.8925 24.5174 47.2697 24.2261L47.2696 24.2263ZM36.6056 9.05234C36.5893 9.10077 36.5893 9.13343 36.5893 9.18186C36.5893 9.2468 36.2946 12.7445 35.8196 16.1615C35.5249 18.2344 35.1809 20.2748 34.7712 21.4732C34.7385 21.5865 34.7055 21.6838 34.6565 21.781C34.3288 22.623 34.0341 23.3033 33.7227 23.8701C33.084 25.0361 32.4123 25.7648 31.3312 26.6069C31.1345 26.7687 30.9218 26.9309 30.6925 27.0927C30.4794 27.2383 30.3648 27.4812 30.3648 27.7402V32.2583C29.2837 32.4528 28.2189 32.5823 27.2035 32.6469C26.4501 32.663 25.5816 32.6791 24.5989 32.6791C23.7309 32.6791 22.9444 32.663 22.2237 32.6469C21.0606 32.5658 20.0125 32.4362 19.1277 32.2906V28.0316C19.1277 27.7076 18.931 27.4163 18.6364 27.2868C18.5707 27.2545 18.489 27.2219 18.4233 27.1896C16.9166 26.5093 15.8188 25.3433 14.918 23.8214C14.787 23.5947 14.656 23.3679 14.525 23.125C14.1483 22.3964 13.788 21.5866 13.4439 20.7284C13.1326 19.9348 12.4775 17.4248 11.9698 15.449C11.8715 15.0927 11.7895 14.7526 11.7078 14.4286L11.6421 14.2019C11.4948 13.6189 11.8388 13.052 12.4118 12.8902C12.9195 12.7446 13.4603 12.9875 13.7059 13.4571L15.6551 17.8295L15.8681 18.2991C16.0154 18.6231 16.3595 18.8172 16.7198 18.7849C16.7198 18.7849 17.0312 18.7526 17.5226 18.801C17.9319 18.8495 18.489 18.9467 19.0787 19.1734C19.7831 19.4647 20.3072 19.8049 20.3235 19.8049C20.7002 20.0478 21.2079 19.9505 21.4536 19.5781C21.6992 19.2057 21.6009 18.7038 21.2242 18.4609C20.6345 18.0724 20.0448 17.7968 19.5045 17.6027C19.1114 17.4571 18.669 17.3275 18.2104 17.2465L18.1941 4.93931V4.85822C18.1451 4.32364 18.5381 3.85441 19.0621 3.78944L19.2915 3.75716C19.5535 3.72487 19.8155 3.80559 20.0285 3.96776C20.2252 4.12956 20.3562 4.35631 20.3889 4.5992L20.6346 13.0527C20.6346 13.2633 20.7329 13.4739 20.8966 13.6195C21.0602 13.7652 21.2733 13.8463 21.4863 13.8463L22.7641 13.814C23.1902 13.7978 23.5338 13.4739 23.5505 13.053L24.2386 2.64009V2.59166C24.2386 2.05708 24.681 1.604 25.2376 1.604H25.336C25.8767 1.604 26.3024 2.00868 26.335 2.54327L25.9583 13.036C25.942 13.4406 26.2367 13.7969 26.6464 13.8619L27.8912 14.0563C28.1042 14.0886 28.3336 14.0402 28.5135 13.9107C28.6939 13.7811 28.8082 13.5705 28.8249 13.3599L29.8239 4.64748V4.6152C29.8403 4.35617 29.9713 4.11327 30.1843 3.93496C30.3973 3.75665 30.643 3.69208 30.9214 3.70821C31.4454 3.75664 31.8388 4.21014 31.8057 4.72855L30.9046 15.1088C30.872 15.4651 31.0683 15.789 31.396 15.9186L32.6081 16.4366C32.8375 16.5339 33.0995 16.5177 33.3125 16.4043C33.5256 16.291 33.6892 16.0804 33.7386 15.8375L35.098 8.58274C35.1637 8.38828 35.311 8.22648 35.491 8.14538C35.6877 8.04816 35.9171 8.03201 36.1297 8.1131C36.4908 8.2749 36.7038 8.66345 36.6055 9.05237L36.6056 9.05234Z" fill="#FEF288"/>
</svg>

<svg xmlns="http://www.w3.org/2000/svg" width="48" height="48" fill="none" xmlns:v="https://vecta.io/nano"><path d="M47.27 24.226a1.2 1.2 0 0 0-.475-.113c-.409 0-.803.227-1.048.615l-1.851 3.223s-.18-.048-.491-.065l1.31-9.198c.164-.68-.213-1.344-.819-1.522l-.147-.032c-.622-.162-1.261.259-1.441.939l-.999 5.959-.803-.146.606-7.401c.098-.696-.344-1.328-.966-1.425l-.066.017c-.622-.081-1.212.388-1.327 1.069l-.819 7.465-.803.032.246-6.235c.016-.13 0-.243-.016-.356l.868-7.676c.262-1.166-.393-2.332-1.524-2.753-.622-.243-1.327-.194-1.933.097a2.4 2.4 0 0 0-1.245 1.457c0 .032-.016.065-.016.081l-.639 3.449.59-6.834v-.032c.082-1.393-.966-2.591-2.359-2.721a2.71 2.71 0 0 0-1.949.583c-.541.454-.868 1.069-.934 1.781l-.426 3.708.197-5.62v-.048C27.941 1.101 26.794 0 25.353 0h-.115c-1.441 0-2.621 1.15-2.637 2.575l-.442 6.623-.131-4.664V4.47c-.082-.696-.426-1.312-.983-1.749a2.62 2.62 0 0 0-1.933-.551l-.229.032c-1.392.162-2.424 1.409-2.326 2.786v10.898l-1.359-3.061c0-.016-.016-.016-.016-.032-.59-1.182-1.933-1.781-3.21-1.425a2.67 2.67 0 0 0-1.901 3.239l.049.227 1.048 4.016.573 4.227-.884.081-1.572-7.32c-.18-.664-.884-1.053-1.556-.891l-.066.016c-.688.162-1.114.858-.934 1.538l1.343 7.287-.868.243-1.655-5.814a1.29 1.29 0 0 0-1.655-.745l-.147.065c-.655.243-.999.956-.753 1.62L5.27 28.13l-.541.13-2.326-2.963c-.262-.308-.655-.486-1.048-.486-.229 0-.459.065-.672.178-.639.356-.868 1.166-.524 1.814l2.408 4.243c.77 1.053 1.523 1.943 2.343 2.607s1.703 1.101 2.768 1.263l.393 1.555c-.033 0-.066.016-.082.032-2.244.826-2.178 1.652-2.097 1.992 0 .016.016.048.016.065L8.3 47.401a.82.82 0 0 0 .786.599c.066 0 .147 0 .213-.032.442-.113.704-.551.573-.988l-2.047-7.611.803-.081c1.147-.146 2.719-.453 4.537-.907L15 37.895v9.279c0 .454.36.81.819.81s.819-.356.819-.81V33.459c.033.016.066.016.098.032l.966.211 1.065.194 3.047.372c1.671.129 3.604.178 5.701 0l3.227-.405 1.179-.227c.098-.016.18-.048.278-.065v13.603c0 .453.36.81.819.81s.819-.356.819-.81V38.43l3.325.583 4.193.356h.131l.508-.016-1.163 7.692a.82.82 0 0 0 .688.923h.115c.393 0 .753-.291.803-.696l1.359-8.939V38.3v-.032-.048-.048c.033-.729-.672-1.296-2.113-1.684-.033-.016-.066-.016-.115-.016l.229-1.587c.934-.291 1.704-.826 2.392-1.587.688-.745 1.294-1.717 1.9-2.866.36-.68 1.261-3.045 1.818-4.502.246-.65-.016-1.412-.639-1.703h0zM36.606 9.052c-.016.048-.016.081-.016.13 0 .065-.295 3.563-.77 6.98-.295 2.073-.639 4.113-1.048 5.312-.033.113-.066.211-.115.308l-.934 2.089c-.639 1.166-1.31 1.895-2.392 2.737l-.639.486c-.213.146-.328.389-.328.648v4.518a27.98 27.98 0 0 1-3.161.389l-2.605.032c-.868 0-1.654-.016-2.375-.032l-3.096-.356v-4.259a.82.82 0 0 0-.491-.745l-.213-.097c-1.507-.68-2.605-1.846-3.505-3.368l-.393-.696a27.75 27.75 0 0 1-1.081-2.397c-.311-.794-.966-3.304-1.474-5.279l-.262-1.02-.066-.227a1.08 1.08 0 0 1 .77-1.312 1.12 1.12 0 0 1 1.294.567l1.949 4.372.213.47a.85.85 0 0 0 .852.486s.311-.032.803.016c.409.049.966.146 1.556.372.704.291 1.229.631 1.245.631.377.243.884.146 1.13-.227a.8.8 0 0 0-.229-1.117c-.59-.389-1.179-.664-1.72-.858a7.55 7.55 0 0 0-1.294-.356l-.016-12.307v-.081c-.049-.535.344-1.004.868-1.069l.229-.032c.262-.032.524.048.737.211a1 1 0 0 1 .36.631l.246 8.454c0 .211.098.421.262.567s.377.227.59.227l1.278-.032c.426-.016.77-.34.786-.761l.688-10.413v-.048c0-.535.442-.988.999-.988h.098c.541 0 .966.405.999.939l-.377 10.493a.81.81 0 0 0 .688.826l1.245.194c.213.032.442-.016.622-.146s.295-.34.311-.551l.999-8.712v-.032c.016-.259.147-.502.36-.68s.459-.243.737-.227a.97.97 0 0 1 .884 1.02l-.901 10.38c-.033.356.164.68.491.81l1.212.518c.229.097.491.081.704-.032s.377-.324.426-.567l1.359-7.255c.066-.194.213-.356.393-.437.197-.097.426-.113.639-.032.361.162.574.55.476.939h0z" fill="#fef288"/></svg>
